packages/Snapp/src/FilterIcon/index.svg

<?xml version="1.0" encoding="UTF-8"?>
<svg width="24px" height="24px" viewBox="0 0 24 24" version="1.1" xmlns="http://www.w3.org/2000/svg" xmlns:xlink="http://www.w3.org/1999/xlink">
    <title>Icons/24/Filter</title>
    <g id="Icons/24/Filter" stroke="none" stroke-width="1" fill="none" fill-rule="evenodd">
        <rect id="Container" fill-opacity="0" fill="#D8D8D8" fill-rule="nonzero" x="0" y="0" width="24" height="24"></rect>
        <path d="M8,13 C8.55228475,13 9,13.4477153 9,14 C9,14.5522847 8.55228475,15 8,15 L6,15 L6,21 C6,21.5522847 5.55228475,22 5,22 C4.44771525,22 4,21.5522847 4,21 L4,15 L2,15 C1.44771525,15 1,14.5522847 1,14 C1,13.4477153 1.44771525,13 2,13 L8,13 Z M12,11 C12.5522847,11 13,11.4477153 13,12 L13,21 C13,21.5522847 12.5522847,22 12,22 C11.4477153,22 11,21.5522847 11,21 L11,12 C11,11.4477153 11.4477153,11 12,11 Z M22,15 C22.5522847,15 23,15.4477153 23,16 C23,16.5522847 22.5522847,17 22,17 L20,17 L20,21 C20,21.5522847 19.5522847,22 19,22 C18.4477153,22 18,21.5522847 18,21 L18,17 L16,17 C15.4477153,17 15,16.5522847 15,16 C15,15.4477153 15.4477153,15 16,15 L22,15 Z M19,2 C19.5522847,2 20,2.44771525 20,3 L20,12 C20,12.5522847 19.5522847,13 19,13 C18.4477153,13 18,12.5522847 18,12 L18,3 C18,2.44771525 18.4477153,2 19,2 Z M5,2 C5.55228475,2 6,2.44771525 6,3 L6,10 C6,10.5522847 5.55228475,11 5,11 C4.44771525,11 4,10.5522847 4,10 L4,3 C4,2.44771525 4.44771525,2 5,2 Z M12,2 C12.5522847,2 13,2.44771525 13,3 L13,7 L15,7 C15.5522847,7 16,7.44771525 16,8 C16,8.55228475 15.5522847,9 15,9 L9,9 C8.44771525,9 8,8.55228475 8,8 C8,7.44771525 8.44771525,7 9,7 L11,7 L11,3 C11,2.44771525 11.4477153,2 12,2 Z" id="Shape" fill="#404040" fill-rule="nonzero"></path>
    </g>
</svg>

<svg viewBox="0 0 24 24" xmlns="http://www.w3.org/2000/svg" fill="currentColor" focusable="false">
  <path d="M8 13a1 1 0 010 2H6v6a1 1 0 01-2 0v-6H2a1 1 0 010-2h6zm4-2a1 1 0 011 1v9a1 1 0 01-2 0v-9a1 1 0 011-1zm10 4a1 1 0 010 2h-2v4a1 1 0 01-2 0v-4h-2a1 1 0 010-2h6zM19 2a1 1 0 011 1v9a1 1 0 01-2 0V3a1 1 0 011-1zM5 2a1 1 0 011 1v7a1 1 0 01-2 0V3a1 1 0 011-1zm7 0a1 1 0 011 1v4h2a1 1 0 010 2H9a1 1 0 110-2h2V3a1 1 0 011-1z" fill="none"/>
</svg>
